src/assets/html.svg

<svg width="100" height="114" xmlns="http://www.w3.org/2000/svg"><g fill-rule="nonzero" fill="none"><path fill="#E44D26" d="M100 0l-9.11 102.06-40.95 11.35L9.1 102.07 0 0z"/><path fill="#F16529" d="M50 104.73l33.09-9.17 7.79-87.21H50z"/><path d="M32.29 33.38H50V20.87H18.61l.3 3.35L22 58.72h28V46.2H33.43l-1.14-12.82zM35.11 65H22.54l1.76 19.64 25.64 7.12H50v-13L36 75l-.89-10z" fill="#EBEBEB"/><path d="M50 58.72h15.37L63.92 75 50 78.73v13l25.66-7.11.19-2.12 2.94-32.95.31-3.37H50v12.54zm0-25.37h30.2l.25-2.81.55-6.32.3-3.35H50v12.48z" fill="#FFF"/></g></svg>

<?xml version="1.0" encoding="UTF-8"?>
<svg width="100px" height="114px" viewBox="0 0 100 114" version="1.1" xmlns="http://www.w3.org/2000/svg" xmlns:xlink="http://www.w3.org/1999/xlink">
    <!-- Generator: Sketch 50.2 (55047) - http://www.bohemiancoding.com/sketch -->
    <title>html</title>
    <desc>Created with Sketch.</desc>
    <defs></defs>
    <g id="Page-1" stroke="none" stroke-width="1" fill="none" fill-rule="evenodd">
        <g id="html" fill-rule="nonzero">
            <polygon id="Shape" fill="#E44D26" points="100 0 90.89 102.06 49.94 113.41 9.1 102.07 0 0"></polygon>
            <polygon id="Shape" fill="#F16529" points="50 104.73 83.09 95.56 90.88 8.35 50 8.35"></polygon>
            <path d="M32.29,33.38 L50,33.38 L50,20.87 L18.61,20.87 L18.91,24.22 L22,58.72 L50,58.72 L50,46.2 L33.43,46.2 L32.29,33.38 Z M35.11,65 L22.54,65 L24.3,84.64 L49.94,91.76 L50,91.76 L50,78.76 L36,75 L35.11,65 Z" id="Shape" fill="#EBEBEB"></path>
            <path d="M50,58.72 L65.37,58.72 L63.92,75 L50,78.73 L50,91.73 L75.66,84.62 L75.85,82.5 L78.79,49.55 L79.1,46.18 L50,46.18 L50,58.72 Z M50,33.35 L80.2,33.35 L80.45,30.54 L81,24.22 L81.3,20.87 L50,20.87 L50,33.35 Z" id="Shape" fill="#FFFFFF"></path>
        </g>
    </g>
</svg>
